!!!OTL: Das Dollerlied
!!!ARE: Europa, Mitteleuropa, Deutschland
!!!SCT: A0374C
!!!YEM: Copyright 1995, estate of Helmut Schaffrath.
**kern
*ICvox
*Ivox
!! Mixed meters:  4/4; 4/2
*M4/4
*k[f#c#]
*D:
{2dd
=1
4dd
4ccn
4b
4a
=2
*M4/2
2g
2a
4b
2ccn
4ccn
=3
2dd
2b
2a
4r}
{4dd
=4
*M4/4
4dd
4ccn
4b
4a
=5
*M4/2
2g
2a
4b
2ccn
4ccn
=6
2dd
2b
2a
4r}
{4a
=7
*M4/4
4a
4g
4a
4b
=8
*M4/2
2ccn
2ccn
4ccn
2a
4a
=9
4g
4g
1fn
2ccn}
=10
{2ccn
4ccn
2ccn
4a
2ccn
=11
2a
2a
2ccn
4ccn
[4dd
=12
4dd]
4dd
4a
4b
2ccn
4b
[4a
=13
4a]
4fn
2g
1e
=14
1.d}
==
!!!AGN: Romanze, Ballade, Lied, Personenlied
!! M. Praetorius, Mus. Sion. 1610. VIII. 215. Vgl. Souterliedekens
!!    1540 ad Ps. 82.
!!!ONB: ESAC (Essen Associative Code) Database: ALTDEU
!!!AMT: irregular
!!!AIN: vox
!!!EED: Helmut Schaffrath
!!!EEV: 1.0
*-
